!!!OTL: Auferstehn, ja auferstehn.
!!!OTL-incipit: AUFERSTEHN JA AUFERSTEHN
!!!COM: C. H. Graun
!!!ARE: Europa, Mitteleuropa, Deutschland
!!!SCT: F1057
!!!TXL: @@DE
!!!YEM: Copyright 1995, estate of Helmut Schaffrath.
**kern	**text
*ICvox	*
*clefG2	*
*M3/4	*
*k[b-e-a-]	*
*E-:	*
=1	=1
!LO:TX:a:t=P:only the highest voice encoded:problem	!
{(>4b-/	1._Auf-
4ee-/)	.
4cc/	-er-
=2	=2
(>4b-/	-ſtehn,
4dd/)	.
4ee-/}	ja
=3	=3
{8.ff/	auf-
16aa-	-erſtehn
4gg	.
4ff	wirſt
=4	=4
(>4ee-/	du,
4dd/)}	.
{4ee-/	mein
=5	=5
(>4cc/	Staub,
4b-/)	.
4ee-/	nach
=6	=6
(>4cc/	kur-
4b-/)	.
4a-	-ʒer
=7	=7
4a-qq	.
2.g}	Ruh,
=8	=8
{4g	un-
4ee-/	-ſterb-
8dd/L	-lich
8ccJ	.
=9	=9
(>4b-/	Le-
4a/)	.
4b-/}	-ben
=10	=10
{4b-/	wird,
4cc/	der
4dd/	dich
=11	=11
(8.ee-/L	ſchuf,
32dd	.
32ee-J	.
4ff/)	.
4ee-/	dir
=12	=12
4ee-/	ge-
4dd/	-ben,
8r}	.
{8ee-/	Hal-
=13	=13
4ff/	-le-
(>4ee-/	-lu-
4dd/)	.
=14	=14
(8.ee-/L	-ja,
16ffJ	.
4gg/)	.
8r}	.
{8ee-/	Hal-
=15	=15
4ff/	-le-
(>4ee-/	-lu-
4dd/)	.
=16	=16
4ddqq	.
2.ee-/}	-ja!
==	==
!!!AGN: Trost - Lied
!!!ONB: ESAC (Essen Associative Code) Database: FINK
!!!AMT: simple triple
!!!AIN: vox
!!!EED: Helmut Schaffrath
!!!EEV: 1.0
!!!RDF**kern: > = above
!!Text: Klopfstock
!!!GTL: Trauer- Begraebniss- und Trostlieder
!!!URL-scan: https://www.digitale-sammlungen.de/en/view/bsb11144622?page=669
!!!ENC: Anna Maria Matuszewska
!!!EEV: 2024/08/09
*-	*-
